svg/Pictogram/pictograms-nps-services-tramway.svg

<svg xmlns="http://www.w3.org/2000/svg" width="123.55" height="123.54" viewBox="-0.258 -0.548 123.547 123.539" enable-background="new -0.258 -0.548 123.547 123.539"><path d="m107.96 122.68c8.156 0 14.773-6.586 14.773-14.742v-94.02c0-8.156-6.617-14.766-14.773-14.766h-94.02c-8.148 0-14.765 6.61-14.765 14.766v94.02c0 8.156 6.617 14.742 14.766 14.742h94.02"/><path d="m13.945 1.652c-6.758 0-12.266 5.5-12.266 12.266v94.02c0 6.758 5.508 12.25 12.266 12.25h94.02c6.766 0 12.281-5.492 12.281-12.25v-94.02c0-6.766-5.516-12.266-12.281-12.266h-94.02"/><g fill="#fff"><path d="m111.41 17.09v-3.485l-103.13 39.01v3.487z"/><path d="m53.52 30.91c3.078 0 5.594-2.516 5.594-5.617 0-3.094-2.516-5.586-5.594-5.586-3.102 0-5.617 2.492-5.617 5.586 0 3.102 2.516 5.617 5.617 5.617"/><path d="m88.26 59.988h-24.992v-20.265l-3.492 1.391v18.875h-25.22c-1.977 0-3.586 1.609-3.586 3.586v37.617c0 1.977 1.609 3.594 3.586 3.594h53.703c1.977 0 3.594-1.617 3.594-3.594v-37.618c0-1.976-1.618-3.586-3.594-3.586m-38.12 20.43c0 1.07-.859 1.953-1.93 1.953h-11.82c-1.07 0-1.953-.883-1.953-1.953v-11.789c0-1.07.883-1.953 1.953-1.953h11.82c1.07 0 1.93.883 1.93 1.953v11.789m19.211-.148c0 1.078-.875 1.93-1.953 1.93h-11.789c-1.078 0-1.953-.852-1.953-1.93v-11.813c0-1.07.875-1.922 1.953-1.922h11.789c1.078 0 1.953.852 1.953 1.922v11.813m19.06 0c0 1.078-.852 1.93-1.93 1.93h-11.812c-1.07 0-1.953-.852-1.953-1.93v-11.813c0-1.07.883-1.922 1.953-1.922h11.812c1.078 0 1.93.852 1.93 1.922v11.813"/><path d="m66.906 25.91c3.094 0 5.609-2.516 5.609-5.617s-2.515-5.617-5.609-5.617c-3.078 0-5.594 2.516-5.594 5.617s2.516 5.617 5.594 5.617"/></g></svg>

<?xml version="1.0" encoding="iso-8859-1"?>
<!-- Generator: Adobe Illustrator 13.0.2, SVG Export Plug-In . SVG Version: 6.00 Build 14948)  -->
<!DOCTYPE svg PUBLIC "-//W3C//DTD SVG 1.1//EN" "http://www.w3.org/Graphics/SVG/1.1/DTD/svg11.dtd">
<svg version="1.1" id="Layer_1" xmlns="http://www.w3.org/2000/svg" xmlns:xlink="http://www.w3.org/1999/xlink" x="0px" y="0px"
	 width="123.547px" height="123.539px" viewBox="-0.258 -0.548 123.547 123.539"
	 style="enable-background:new -0.258 -0.548 123.547 123.539;" xml:space="preserve">
<g>
	<path d="M107.961,122.676c8.156,0,14.773-6.586,14.773-14.742V13.918c0-8.156-6.617-14.766-14.773-14.766H13.945
		C5.797-0.848-0.82,5.762-0.82,13.918v94.016c0,8.156,6.617,14.742,14.766,14.742H107.961z"/>
	<path d="M13.945,1.652c-6.758,0-12.266,5.5-12.266,12.266v94.016c0,6.758,5.508,12.25,12.266,12.25h94.016
		c6.766,0,12.281-5.492,12.281-12.25V13.918c0-6.766-5.516-12.266-12.281-12.266H13.945z"/>
	<polygon style="fill:#FFFFFF;" points="111.406,17.09 111.406,13.605 8.281,52.613 8.281,56.105 	"/>
	<path style="fill:#FFFFFF;" d="M53.523,30.91c3.078,0,5.594-2.516,5.594-5.617c0-3.094-2.516-5.586-5.594-5.586
		c-3.102,0-5.617,2.492-5.617,5.586C47.906,28.395,50.422,30.91,53.523,30.91z"/>
	<path style="fill:#FFFFFF;" d="M88.258,59.988H63.266V39.723l-3.492,1.391v18.875H34.555c-1.977,0-3.586,1.609-3.586,3.586v37.617
		c0,1.977,1.609,3.594,3.586,3.594h53.703c1.977,0,3.594-1.617,3.594-3.594V63.574C91.852,61.598,90.234,59.988,88.258,59.988z
		 M50.133,80.418c0,1.07-0.859,1.953-1.93,1.953h-11.82c-1.07,0-1.953-0.883-1.953-1.953V68.629c0-1.07,0.883-1.953,1.953-1.953
		h11.82c1.07,0,1.93,0.883,1.93,1.953V80.418z M69.344,80.27c0,1.078-0.875,1.93-1.953,1.93H55.602c-1.078,0-1.953-0.852-1.953-1.93
		V68.457c0-1.07,0.875-1.922,1.953-1.922h11.789c1.078,0,1.953,0.852,1.953,1.922V80.27z M88.406,80.27
		c0,1.078-0.852,1.93-1.93,1.93H74.664c-1.07,0-1.953-0.852-1.953-1.93V68.457c0-1.07,0.883-1.922,1.953-1.922h11.812
		c1.078,0,1.93,0.852,1.93,1.922V80.27z"/>
	<path style="fill:#FFFFFF;" d="M66.906,25.91c3.094,0,5.609-2.516,5.609-5.617S70,14.676,66.906,14.676
		c-3.078,0-5.594,2.516-5.594,5.617S63.828,25.91,66.906,25.91z"/>
</g>
</svg>
